X:1
T:Here and Yonder
T:Here and Yonder
T:Eura  L. Tussing
T:Hannah Thurston, 1915
T:Public Domain Courtesy of the Cyber Hymnal™
T:Public Domain Courtesy of the Cyber Hymnal™
C:Eura  L. Tussing
Z:Public Domain
Z:Courtesy of the Cyber Hymnal™
%%score ( 1 2 ) ( 3 4 )
L:1/8
Q:1/4=83
M:3/4
K:F
V:1 treble 
V:2 treble 
V:3 bass 
V:4 bass 
V:1
 CC F | A3 F F>D | C3 F FA | [FAc]3 A G>F x | G3 C CF x2 | A3 F F>D | C3 F FA | cB G3 A | %8
w: 1.~If I would|reach that land of|light, That knows no|gloom, no dark- some|night, My soul must|here with ra- diance|glow, God’s truth dis-|play, His glo- ry|
w: 2.~If I would|reach that land so|fair, Whose beau- ty|shines be- yond com-|pare, My life must|here with beau- ty|shine, With pur- i-|ty and grace di-|
w: 3.~If I would|reach that land of|love, Whose joy and|peace a- wait a-|bove, I here must|share the suff- erer’s|smart, I here must|win the ten- der|
 !fermata!F3 ||"^Refrain" FF F | B3 z DFB | A2 z F A x2 | c3 z AGF | G3 !fermata!C C[CF] | %14
w: show.|Lord, here in|us Thy Heav’n pre-|pare, That we|may find it heav-|en there; With light|
w: vine.||||||
w: heart.||||||
 [CA]3 [^CF] [DF]>[B,D] | [A,C]3 [CF] [CF][FA] | [_Ec][DB] [=EG]3 [EA] | !fermata![CF]3 |] %18
w: and beau- ty, heav’n-|ly love, At- tune|our souls for Heav’n|a-|
w: ||||
w: ||||
V:2
 x3 | x6 | x6 | x7 | x8 | x6 | x6 | x6 | x3 || x3 | (DD D2) _D2 x | (CF A2) C F2 | (FF F2) D2 x | %13
 (EF C)C C x | x6 | x6 | x6 | x3 |] %18
V:3
 A,A, A, | C2 [A,,^C][B,,D]>[D,B,] x | A,3 A, A,C | A,3 z C=B,>B, | B,3 ([D,F,] [C,E,])A,A,A, | %5
w: ~ ~ ~|~ ~ ~ ~|~ ~ ~ ~|~ ~ ~ ~|~ ~ * ~ ~ ~|
 C3 [A,,^C] [B,,D]>[D,B,] | A,3 A, A,C | [^F,,_E][G,,D] B,3 C | A,3 || z3 | %10
w: * ~ ~ ~|~ ~ ~ ~|~ ~ ~ ~|~||
 [B,,F,][B,,F,] [B,,F,]2 [B,,F,]2 x | F,[F,A,] [F,C]2 (A,C) x | [F,A,][F,A,] [F,A,]2 [G,=B,]2 x | %13
w: Here in us Thy|Heav’n pre- pare, That *|we may find it|
 [C,C][D,=B,] !fermata![E,_B,][F,A,] [F,A,][F,A,] | F,3 [A,,F,] [B,,F,]>[D,F,] | %15
w: heav- en there; * * *||
 F,3 [F,A,] [F,A,][F,C] | [A,,F,][B,,F,] [C,B,]3 [C,C] | !fermata![F,A,]3 |] %18
w: |||
V:4
 x3 | (F,,^C, F,) x3 | (F,C, F,,) x3 | (F,,C, F,2) [G,,F,]2 x | [C,E,] x7 | (A,,^C, F,) x3 | %6
 (F,C, F,,) x3 | x2 C,4 | (F,C, F,,) || x3 | x7 | F, x2 F,2 x2 | x7 | x6 | F,3 x3 | F,3 x3 | x6 | %17
 x3 |] %18

